data/sheikah/9.svg

<!-- Generated by IcoMoon.io -->
<svg version="1.1" xmlns="http://www.w3.org/2000/svg" width="1024" height="1024" viewBox="0 0 1024 1024">
<title></title>
<g id="icomoon-ignore">
</g>
<path d="M870.5 870.5h-119.5v-119.5h119.5v119.5zM273 273h597.5l-119.5-119.5h-478l-119.5 119.5v478l119.5 119.5v-597.5zM572 870.5v-299h298.5v-119.5h-298.5l-119.5 119.5v299h119.5z"></path>
</svg>

<svg xmlns="http://www.w3.org/2000/svg" width="1024" height="1024" viewBox="0 0 1024 1024">
  <title/>
  <path d="M870.5 870.5H751V751h119.5zM273 273h597.5L751 153.5H273L153.5 273v478L273 870.5zm299 597.5v-299h298.5V452H572L452.5 571.5v299z"/>
</svg>
